src/assets/img/icons/duotone-icons/Design/Border.svg

<?xml version="1.0" encoding="UTF-8"?>
<svg width="24px" height="24px" viewBox="0 0 24 24" version="1.1" xmlns="http://www.w3.org/2000/svg" xmlns:xlink="http://www.w3.org/1999/xlink">
    <!-- Generator: Sketch 52.2 (67145) - http://www.bohemiancoding.com/sketch -->
    <title>Stockholm-icons / Design / Border</title>
    <desc>Created with Sketch.</desc>
    <g id="Stockholm-icons-/-Design-/-Border" stroke="none" stroke-width="1" fill="none" fill-rule="evenodd">
        <rect id="bound" x="0" y="0" width="24" height="24"></rect>
        <path d="M7,6 C6.44771525,6 6,6.44771525 6,7 L6,17 C6,17.5522847 6.44771525,18 7,18 L17,18 C17.5522847,18 18,17.5522847 18,17 L18,7 C18,6.44771525 17.5522847,6 17,6 L7,6 Z M7,4 L17,4 C18.6568542,4 20,5.34314575 20,7 L20,17 C20,18.6568542 18.6568542,20 17,20 L7,20 C5.34314575,20 4,18.6568542 4,17 L4,7 C4,5.34314575 5.34314575,4 7,4 Z" id="Rectangle" fill="#335EEA"></path>
    </g>
</svg>

<svg width="24" height="24" viewBox="0 0 24 24" xmlns="http://www.w3.org/2000/svg"><g fill="none" fill-rule="evenodd"><path d="M0 0h24v24H0z"/><path d="M7 6a1 1 0 00-1 1v10a1 1 0 001 1h10a1 1 0 001-1V7a1 1 0 00-1-1H7zm0-2h10a3 3 0 013 3v10a3 3 0 01-3 3H7a3 3 0 01-3-3V7a3 3 0 013-3z" fill="#335EEA"/></g></svg>
